X:1
T:Come! Tune Your Heart
T:Frederick Arthur Gore-Ouseley (1825-1889)
T:Come! Tune Your Heart
T:Public Domain
T:Public Domain
C:Frederick Arthur Gore-Ouseley (1825-1889)
Z:Public Domain
%%score ( 1 2 ) ( 3 4 )
L:1/8
M:4/4
K:Eb
V:1 treble 
V:2 treble 
V:3 bass 
V:4 bass 
V:1
 [B,E]2 | [EG]2 [EA]2 | [DB]2 [EG]2 | [EA]2 [Ec]2 | [EB]2 [FB]2 | [Ee]2 (dc) | [GB]2 (=AG) | %7
w: 1.~Come!|tune your|heart, to|bear its|part, And|cel- e- *|Mes- si- *|
w: 2.~Ex-|alt His|Name; with|joy pro-|claim, God|loved the *|and through *|
w: 3.~Your|re- fuge|place in|His free|grace, Trust|in His *|and day *|
w: 4.~O|Christ, to|prove for|Thee my|love In|breth- ren *|my hands *|
w: 5.~Come!|praise the|Lord; in|Heav’n are|stored Rich|gifts for *|who here *|
 [DF]2 [Ec]2 | [DB]2 [Bd]2 | (B2 =A2) | [Bd]2 B2 | (B2 =A2) | B2 [EB]2 | [EG]2 [DF]2 | E2 [Fc]2 | %15
w: feast with|prais- es,|with *|es; Let|in- *|the joy-|choir, While|to the|
w: Son for-|gave us,|for- *|us; Oh!|are *|that, Lord,|see Thy|wond- rous|
w: day re-|pent you,|re- *|you; Ye|God’s *|who call|Lord, And|fol- low|
w: clothe and|cher- ish,|and *|ish, To|sad *|sweet hope|part, When|worn with|
w: Name es-|teem- èd,|es- *|èd; Al-|lu- *|Al- le-|ia; Re-|joice in|
 [FA]2 [=EG]2 | F2 [EG]2 | [EA]2 [EB]2 | [Ec]2 [Ec]2 | [Ad]2 (ec) | [AB]2 [GB]2 | (G2 FE) | %22
w: of love,|glad hymns|rais- es,|it rais-|es. * *|||
w: in Christ|Who died|save us,|to save|us! * *|||
w: the pat-|tern He|lent you,|hath lent|you. * *|||
w: with sor-|row nigh|per- ish,|to per-|ish. * *|||
w: and praise|Him ye|deem- èd,|re- deem-|èd. * *|||
 [FB]2 [EB]2 | (E2 D2) | E4 |] %25
w: |||
w: |||
w: |||
w: |||
w: |||
V:2
 x2 | x4 | x4 | x4 | x4 | x2 F2 | x2 C2 | x4 | x4 | f4 | x2 B2 | c4 | B2 x2 | x4 | E2 x2 | x4 | %16
w: |||||brate|ah’s|||prais-|love|spire|ful||God||
w: |||||world,|His|||gave|what|we,|we||love,||
w: |||||Name,|by|||pent|mock|Word,|Him||not||
w: |||||Thee|shall|||cher-|each|heart|im-||care,||
w: |||||those|His|||teem-|le-|ia;|lu-||Christ,||
 F2 x2 | x4 | x4 | x2 A2 | x4 | c4 | x4 | F4 | E4 |] %25
w: it|||||||||
w: to|||||||||
w: hath|||||||||
w: to|||||||||
w: re-|||||||||
V:3
 [E,G,]2 | [D,G,]2 [C,E,]2 | [B,,F,]2 E,2 | [C,A,]2 [A,,A,]2 | [E,G,]2 [D,B,]2 | [C,C]2 (B,A,) | %6
 [E,G,]2 [=E,B,]2 | [F,B,]2 [F,=A,]2 | B,2 [G,B,]2 | [F,C]4 | [B,D]2 [G,=E]2 | [F,F]4 | %12
 [B,D]2 [G,,B,]2 | [A,,C]2 [B,,A,]2 | [C,G,]2 [A,,C]2 | [B,,_D]2 [C,B,]2 | [_D,A,]2 [D,B,]2 | %17
 [C,A,]2 [B,,G,]2 | [A,,A,]2 (A,G,) | [F,A,]2 [E,C]2 | [D,F]2 [E,E]2 | (E2 C2) | [A,,D]2 (EB,) | %23
 (B,3 A,) | [E,G,]4 |] %25
V:4
 x2 | x4 | x2 E,2 | x4 | x4 | x2 D,2 | x4 | x4 | B,2 x2 | x4 | x4 | x4 | x4 | x4 | x4 | x4 | x4 | %17
 x4 | x2 A,2 | x4 | x4 | A,,4 | x2 G,,2 | B,,4 | x4 |] %25

